**kern	**kern	**dynam
*part1	*part1	*part1
*staff2	*staff1	*
*I"Piano	*	*
*clefF4	*clefG2	*
*k[b-]	*k[b-]	*
=1	=1	=1
8AAL 8F 8A	8aL 8dd 8aa	.
8D 8F 8A	8a 8dd 8ff	.
8D 8F 8A	8a 8dd 8ff	.
8DJ 8G 8B-	8g^J 8b- 8dd	.
=	=	=
8DL 8G 8B-	8gL 8b- 8dd	.
8G 8B-	8d 8g 8b-	.
8G 8B-	8d 8g 8b-	.
8AAJ 8D	8A^J 8f 8a	.
=	=	=
8AAL	8AL 8f 8a	.
8AA 8F	8A 8d 8a	.
8AA 8E	8A 8c#X 8a	.
8AAJ 8C#X 8G	8AJ 8e 8a	.
=	=	=
8DL 8F	8AL 8d 8a	.
8AA	8A 8a	.
8AA	8A 8a	.
8AAJ 8F	8AJ 8a	pp
=	=	=
8AAL 8F	8AL 8a	.
8AA 8D	8A 8f 8a	.
8AA 8C#X	8A 8e 8a	.
8AAJ 8E 8G	8AJ 8c#X 8a	.
=	=	=
!	!LO:TX:b:i:t=dim.	!
8DL 8F	8AL 8d 8a	.
8AA	8A 8d 8f	.
8AA	8A 8d 8f	.
8DDJ 8AA 8D	8FJ 8A 8d	.
=	=	=
4DD 4AA 4D	4F 4A 4d	.
4r	4r	.
==	==	==
*-	*-	*-
!!!system-decoration: {(s1,s2)}
